packages/tokens/icons/recommendedProducts/size24Px.svg

<svg viewBox="0 0 24 24" fill="none" xmlns="http://www.w3.org/2000/svg" width="1em" height="1em"><rect x="2.5" y="4.5" width="19" height="15" rx="1.5" stroke="currentColor"/><line x1="2.10522" y1="7.5" x2="21.2631" y2="7.5" stroke="currentColor"/><circle cx="4.5" cy="5.97363" r="0.5" fill="currentColor"/><circle cx="6.5" cy="5.97363" r="0.5" fill="currentColor"/><circle cx="8.5" cy="5.97363" r="0.5" fill="currentColor"/><path d="M16.5 16.5V10.5" stroke="currentColor" stroke-linecap="round"/><path d="M14.5 12L16.5 10L18.5 12" stroke="currentColor" stroke-linecap="round" stroke-linejoin="round"/><path d="M6.81131 13.7833L5.69307 12.7037C5.40164 12.4223 5.54829 11.9293 5.94614 11.8529L7.62068 11.5316C7.78017 11.501 7.91485 11.3948 7.98188 11.2469L8.54457 10.0051C8.72198 9.61357 9.27802 9.61357 9.45543 10.0051L10.0181 11.2469C10.0851 11.3948 10.2198 11.501 10.3793 11.5316L12.0539 11.8529C12.4517 11.9293 12.5984 12.4223 12.3069 12.7037L11.1887 13.7833C11.0705 13.8974 11.0159 14.0623 11.0426 14.2243L11.3324 15.983C11.4003 16.395 10.9632 16.7038 10.5975 16.5021L9.24154 15.754C9.0912 15.671 8.9088 15.671 8.75846 15.754L7.40246 16.5021C7.03685 16.7038 6.59968 16.395 6.66757 15.983L6.95736 14.2243C6.98406 14.0623 6.92947 13.8974 6.81131 13.7833Z" stroke="currentColor" stroke-linejoin="round"/></svg>

<svg xmlns="http://www.w3.org/2000/svg" fill="none" viewBox="0 0 24 24" width="1em" height="1em"><rect width="19" height="15" x="2.5" y="4.5" stroke="currentColor" rx="1.5"/><path stroke="currentColor" d="M2.105 7.5h19.158"/><circle cx="4.5" cy="5.974" r=".5" fill="currentColor"/><circle cx="6.5" cy="5.974" r=".5" fill="currentColor"/><circle cx="8.5" cy="5.974" r=".5" fill="currentColor"/><path stroke="currentColor" stroke-linecap="round" d="M16.5 16.5v-6"/><path stroke="currentColor" stroke-linecap="round" stroke-linejoin="round" d="m14.5 12 2-2 2 2"/><path stroke="currentColor" stroke-linejoin="round" d="m6.811 13.783-1.118-1.08a.5.5 0 0 1 .253-.85l1.675-.321a.5.5 0 0 0 .36-.285l.564-1.242a.5.5 0 0 1 .91 0l.563 1.242a.5.5 0 0 0 .361.285l1.675.32a.5.5 0 0 1 .253.852l-1.118 1.08a.5.5 0 0 0-.146.44l.29 1.759a.5.5 0 0 1-.736.52l-1.355-.749a.5.5 0 0 0-.484 0l-1.356.748a.5.5 0 0 1-.734-.519l.29-1.759a.5.5 0 0 0-.147-.44Z"/></svg>
